X: 4
T: The Brosna
R: slide
M: 12/8
L: 1/8
K: Dmaj
d3 d2e f2g a2f|e2d cBA e2d cBA|
d3 d2e f2g agf|e2d cBA d3 d3:|
|:d2c Bcd c2B A2F|G2F E2F G2A B2c|
d2c Bcd c2B A2G|F2G E2F D3 D3:|


Tune 1414	Setting 21328

